packages/components/Atoms/Icon/assets/img/rpl_icon_upload.svg

<svg width="13" height="17" viewBox="0 0 13 17" overflow="visible" xmlns="http://www.w3.org/2000/svg">
  <path fill-rule="evenodd" clip-rule="evenodd" d="M5.32601 0.26025L0.32601 4.80625C-0.0809904 5.17825 -0.11099 5.80925 0.25901 6.21925C0.63101 6.62725 1.26301 6.65625 1.67201 6.28525L4.99901 3.26125V11.0002C4.99901 11.5532 5.44601 12.0002 5.99901 12.0002C6.55201 12.0002 6.99901 11.5532 6.99901 11.0002V3.26125L10.326 6.28525C10.735 6.65625 11.367 6.62725 11.739 6.21925C11.913 6.02725 11.999 5.78525 11.999 5.54625C11.999 5.27425 11.888 5.00325 11.672 4.80625L6.67201 0.26025C6.29001 -0.08675 5.70801 -0.08675 5.32601 0.26025Z"
    fill="inherit" />
  <path fill-rule="evenodd" clip-rule="evenodd" d="M1.00018 16.0004C0.448183 16.0004 0.000183126 15.5534 0.000183126 15.0004C0.000183126 14.4474 0.448183 14.0004 1.00018 14.0004H11.0002C11.5522 14.0004 12.0002 14.4474 12.0002 15.0004C12.0002 15.5534 11.5522 16.0004 11.0002 16.0004H1.00018Z"
    fill="inherit" />
</svg>

<svg width="13" height="17" overflow="visible" xmlns="http://www.w3.org/2000/svg"><path fill-rule="evenodd" clip-rule="evenodd" d="M5.326.26l-5 4.546A1.003 1.003 0 00.259 6.22a1.001 1.001 0 001.413.066l3.327-3.024v7.74a1 1 0 102 0V3.26l3.327 3.024a1.001 1.001 0 001.673-.739 1 1 0 00-.327-.74l-5-4.546a1 1 0 00-1.346 0zM1 16a1 1 0 110-2h10a1 1 0 110 2H1z" fill="inherit"/></svg>
